X: 35
T:Redmond's Frolics (#235)
M:4/4
L:1/8
S:Rice-Walsh manuscript
R:Reel
K:G
GABc dBcB|AFDc BcAF|GABc dBcB|AFDF AG G2|
GABc dBcB|AFDc BcAF|GABc dBcB|AFDF AG G2||
g2 ag fgag|fdde f2 af|gfgf g2 ag|fdcA BG G2|
g2 ag fgag|fdde f2 af|gfgf gbag|fdcA BGAF||

